contributed-vectors/otomoto_alt.svg

<svg xmlns="http://www.w3.org/2000/svg" xml:space="preserve" style="fill-rule:evenodd;clip-rule:evenodd;stroke-linejoin:round;stroke-miterlimit:2" viewBox="0 0 192 192"><path d="M164.5 21.5c0-5.519-4.481-10-10-10h-133c-5.519 0-10 4.481-10 10v133c0 5.519 4.481 10 10 10h133c5.519 0 10-4.481 10-10v-133Z" style="fill:#fff" transform="translate(8 8)"/><path d="M124.142 66.568c7.754 7.417 12.587 17.864 12.587 29.432 0 22.479-18.25 40.729-40.729 40.729-11.568 0-22.015-4.833-29.432-12.587L80.98 109.73c3.722 4.07 9.075 6.624 15.02 6.624 11.234 0 20.354-9.12 20.354-20.354 0-5.945-2.554-11.298-6.624-15.02l14.412-14.412Z" style="fill:#54688c" transform="matrix(.8839 0 0 .8839 11.146 11.146)"/><path d="M66.568 124.142C59.571 116.826 55.271 106.911 55.271 96c0-22.479 18.25-40.729 40.729-40.729 10.911 0 20.826 4.3 28.142 11.297L109.73 80.98A20.279 20.279 0 0 0 96 75.646c-11.234 0-20.354 9.12-20.354 20.354a20.279 20.279 0 0 0 5.334 13.73l-14.412 14.412Z" style="fill:#ff837d" transform="matrix(.8839 0 0 .8839 11.146 11.146)"/></svg>

<?xml version="1.0" encoding="UTF-8" standalone="no"?>
<!DOCTYPE svg PUBLIC "-//W3C//DTD SVG 1.1//EN" "http://www.w3.org/Graphics/SVG/1.1/DTD/svg11.dtd">
<svg width="100%" height="100%" viewBox="0 0 192 192" version="1.1" xmlns="http://www.w3.org/2000/svg" xmlns:xlink="http://www.w3.org/1999/xlink" xml:space="preserve" xmlns:serif="http://www.serif.com/" style="fill-rule:evenodd;clip-rule:evenodd;stroke-linejoin:round;stroke-miterlimit:2;">
    <g transform="matrix(1,0,0,1,8,8)">
        <path d="M164.5,21.5C164.5,15.981 160.019,11.5 154.5,11.5L21.5,11.5C15.981,11.5 11.5,15.981 11.5,21.5L11.5,154.5C11.5,160.019 15.981,164.5 21.5,164.5L154.5,164.5C160.019,164.5 164.5,160.019 164.5,154.5L164.5,21.5Z" style="fill:white;"/>
    </g>
    <g transform="matrix(0.883899,0,0,0.883899,11.1457,11.1457)">
        <g id="Layer1">
            <g>
                <path d="M124.142,66.568C131.896,73.985 136.729,84.432 136.729,96C136.729,118.479 118.479,136.729 96,136.729C84.432,136.729 73.985,131.896 66.568,124.142L80.98,109.73C84.702,113.8 90.055,116.354 96,116.354C107.234,116.354 116.354,107.234 116.354,96C116.354,90.055 113.8,84.702 109.73,80.98L124.142,66.568Z" style="fill:rgb(84,104,140);"/>
                <path d="M66.568,124.142C59.571,116.826 55.271,106.911 55.271,96C55.271,73.521 73.521,55.271 96,55.271C106.911,55.271 116.826,59.571 124.142,66.568L109.73,80.98C106.109,77.668 101.289,75.646 96,75.646C84.766,75.646 75.646,84.766 75.646,96C75.646,101.289 77.668,106.109 80.98,109.73L66.568,124.142Z" style="fill:rgb(255,131,125);"/>
            </g>
        </g>
    </g>
</svg>
